X: 319
T:Buy A Broom - Boy. JaW.318
M:3/8
L:1/8
Q:30
S:James Winder Ms, Lancashire, 1835-41
R:Waltz
O:England
A:Wyresdale,Lancashire
H:1/8
Z:vmp.Chris Partington, Aug 2004
K:G
GB|.d(d/e/d/c/)|cGG|ADD|cGG|\
.d(d/e/d/c/)|BGG|ADF|G2:|!
|:z|BGG|ADD|BGG|ADD|\
.d(d/e/d/c/)|BGG|ADF|G3:|]
